X:1
T:Title
L:1/8
Q:1/4=140
M:6/8
K:Ab
V:1 treble nm="Grand Piano"
V:1
 A3- A2 G | F3 C2 C | A2 A G2 F | G3- G2 G | B2 B A2 G | A3 B3 | c6- | c6 | d3- d2 c | B3 G2 G | %10
w: ???~????? * *||||||||||
 d2 d c2 _c | c3- c2 G | B2 B A2 G | =E3 G3 | F6- | F2 c c2 c | c6 | d2 c B2 =A | c3 B3- | %19
w: |||||||||
 B2 B B2 B | B6 | c2 B A2 G | B3 A3- | A2 F A2 G | F2 F B2 A | G2 G B2 d | c2 _c =c3 | c3- c2 B | %28
w: |||||||||
 B2 =A B3 | B3 G2 A | B2 G A3 | A3- A2 F | G2 A d2 c | B2 A G3 | =E2 G F3- | F6 |] %36
w: ||||||||

